assets/img/icons/duotone-icons/Home/Globe.svg

<?xml version="1.0" encoding="UTF-8"?>
<svg width="24px" height="24px" viewBox="0 0 24 24" version="1.1" xmlns="http://www.w3.org/2000/svg" xmlns:xlink="http://www.w3.org/1999/xlink">
    <!-- Generator: Sketch 52.2 (67145) - http://www.bohemiancoding.com/sketch -->
    <title>Stockholm-icons / Home / Globe</title>
    <desc>Created with Sketch.</desc>
    <g id="Stockholm-icons-/-Home-/-Globe" stroke="none" stroke-width="1" fill="none" fill-rule="evenodd">
        <rect id="bound" x="0" y="0" width="24" height="24"></rect>
        <path d="M13,18.9450712 L13,20 L14,20 C15.1045695,20 16,20.8954305 16,22 L8,22 C8,20.8954305 8.8954305,20 10,20 L11,20 L11,18.9448245 C9.02872877,18.7261967 7.20827378,17.866394 5.79372555,16.5182701 L4.73856106,17.6741866 C4.36621808,18.0820826 3.73370941,18.110904 3.32581341,17.7385611 C2.9179174,17.3662181 2.88909597,16.7337094 3.26143894,16.3258134 L5.04940685,14.367122 C5.46150313,13.9156769 6.17860937,13.9363085 6.56406875,14.4106998 C7.88623094,16.037907 9.86320756,17 12,17 C15.8659932,17 19,13.8659932 19,10 C19,7.73468744 17.9175842,5.65198725 16.1214335,4.34123851 C15.6753081,4.01567657 15.5775721,3.39010038 15.903134,2.94397499 C16.228696,2.49784959 16.8542722,2.4001136 17.3003976,2.72567554 C19.6071362,4.40902808 21,7.08906798 21,10 C21,14.6325537 17.4999505,18.4476269 13,18.9450712 Z" id="Combined-Shape" fill="#335EEA"></path>
        <circle id="Oval" fill="#335EEA" opacity="0.3" cx="12" cy="10" r="6"></circle>
    </g>
</svg>

<svg width="24" height="24" viewBox="0 0 24 24" xmlns="http://www.w3.org/2000/svg"><g fill="none" fill-rule="evenodd"><path d="M0 0h24v24H0z"/><path d="M13 18.945V20h1a2 2 0 012 2H8a2 2 0 012-2h1v-1.055a8.972 8.972 0 01-5.206-2.427l-1.055 1.156a1 1 0 01-1.478-1.348l1.788-1.959a1 1 0 011.515.044 7 7 0 109.557-10.07 1 1 0 111.18-1.615 9.001 9.001 0 01-4.3 16.22z" fill="#335EEA"/><circle fill="#335EEA" opacity=".3" cx="12" cy="10" r="6"/></g></svg>
